X:1
T:Title
%%score [ ( 1 2 ) ( 3 4 ) ]
L:1/8
Q:1/4=240
M:4/4
K:G
V:1 treble nm="Midi_74"
V:2 treble 
V:3 bass nm="Midi_74"
V:4 bass 
V:1
"^Psalm 42" G8 | F4 E4 | A8 || G8 | F4 E4 | B4 c4 | F8 || !courtesy!=d8 | d4 e4 | %9
"^[" !fermata![dg]8 || e8 | d4 c4 | B4 A4 |"^Faux bourdon\nS. Wesley" B8 |] %14
V:2
 E8 | B,4 B,4 | E8 || ^D8 | ^D4 E4 | E2 G2 F2 E2 | ^D8 || F8 | G4 F4 | G8 || G8 | G4 E4 | G4 D4 | %13
 D8 |] %14
V:3
 B,8 | A,4 G,4 | C8 || B,8 | A,4 F,4 | G,4 A,4 | F,8 || A,8 | B,4 C4 | !fermata!D8 || C8 | %11
 B,4 A,4 | G,4 F,4 | G,8 |] %14
V:4
 E,8 | E,4 E,4 | A,,8 || B,,8 | C,4 C,4 | B,,4 A,,4 | B,,8 || C,8 | B,,4 A,,4 | !fermata!B,,8 || %10
 C,8 | G,4 C,4 | D,4 D,4 | G,,8 |] %14

